logos/aws-batch.svg

<?xml version="1.0" encoding="UTF-8"?>
<svg width="256px" height="256px" viewBox="0 0 256 256" version="1.1" xmlns="http://www.w3.org/2000/svg" xmlns:xlink="http://www.w3.org/1999/xlink" preserveAspectRatio="xMidYMid">
    <title>AWS Batch</title>
    <defs>
        <linearGradient x1="0%" y1="100%" x2="100%" y2="0%" id="linearGradient-1">
            <stop stop-color="#C8511B" offset="0%"></stop>
            <stop stop-color="#FF9900" offset="100%"></stop>
        </linearGradient>
    </defs>
    <g>
        <rect fill="url(#linearGradient-1)" x="0" y="0" width="256" height="256"></rect>
        <path d="M128.722581,188.4704 C132.687097,188.4704 135.906452,191.6608 135.906452,195.5968 C135.906452,199.5328 132.687097,202.7232 128.722581,202.7232 C124.758065,202.7232 121.53871,199.5328 121.53871,195.5968 C121.53871,191.6608 124.758065,188.4704 128.722581,188.4704 M68.1645162,130.8032 C68.1645162,134.7392 64.9451613,137.9296 60.9806451,137.9296 C57.016129,137.9296 53.7967741,134.7392 53.7967741,130.8032 C53.7967741,126.8704 57.016129,123.6768 60.9806451,123.6768 C64.9451613,123.6768 68.1645162,126.8704 68.1645162,130.8032 M196.412903,211.2 C188.151613,211.2 181.680645,205.0112 181.680645,197.1136 C181.680645,189.056 188.290323,182.4992 196.412903,182.4992 C204.53871,182.4992 211.148387,189.056 211.148387,197.1136 C211.148387,205.0112 204.677419,211.2 196.412903,211.2 M181.680645,131.2 C181.680645,123.1424 188.290323,116.5856 196.412903,116.5856 C204.53871,116.5856 211.148387,123.1424 211.148387,131.2 C211.148387,139.2576 204.53871,145.8144 196.412903,145.8144 C188.290323,145.8144 181.680645,139.2576 181.680645,131.2 M128.722581,145.8144 C120.596774,145.8144 113.990323,139.2576 113.990323,131.2 C113.990323,123.1424 120.596774,116.5856 128.722581,116.5856 C136.848387,116.5856 143.454839,123.1424 143.454839,131.2 C143.454839,139.2576 136.848387,145.8144 128.722581,145.8144 M144.851613,195.2 C144.851613,204.3232 137.919355,211.2 128.722581,211.2 C119.525806,211.2 112.593548,204.3232 112.593548,195.2 C112.593548,186.0768 119.525806,179.2 128.722581,179.2 C137.919355,179.2 144.851613,186.0768 144.851613,195.2 M109.367742,67.2 C109.367742,57.152 118.590323,48 128.722581,48 C138.854839,48 148.077419,57.152 148.077419,67.2 C148.077419,77.248 138.854839,86.4 128.722581,86.4 C118.590323,86.4 109.367742,77.248 109.367742,67.2 M60.9806451,147.2 C51.783871,147.2 44.8516128,140.3232 44.8516128,131.2 C44.8516128,121.9392 52.0870966,114.4064 60.9806451,114.4064 C69.8741936,114.4064 77.1096774,121.9392 77.1096774,131.2 C77.1096774,140.3232 70.1774192,147.2 60.9806451,147.2 M75.6645162,197.0048 C75.6645162,204.9632 69.1935485,211.2 60.9290323,211.2 C52.6677421,211.2 46.1967741,204.9632 46.1967741,197.0048 C46.1967741,188.944 52.8064515,182.3904 60.9290323,182.3904 C69.0548387,182.3904 75.6645162,188.944 75.6645162,197.0048 M199.63871,176.368 L199.63871,151.9424 C209.790323,150.3968 217.6,141.696 217.6,131.2 C217.6,119.6128 208.093548,110.1856 196.412903,110.1856 C185.832258,110.1856 177.06129,117.9296 175.503226,128 L149.632258,128 C148.235484,118.976 141.045161,111.8432 131.948387,110.4576 L131.948387,92.5536 C144.3,90.8704 154.529032,79.7568 154.529032,67.2 C154.529032,53.5616 142.470968,41.6 128.722581,41.6 C114.974194,41.6 102.916129,53.5616 102.916129,67.2 C102.916129,79.7568 113.145161,90.8704 125.496774,92.5536 L125.496774,110.4576 C116.4,111.8432 109.209677,118.976 107.812903,128 L83.3225808,128 C81.7935485,116.7264 72.3709677,108.0064 60.9806451,108.0064 C48.5322579,108.0064 38.4,118.4128 38.4,131.2 C38.4,142.6688 46.6774192,151.8432 57.7548387,153.3568 L57.7548387,176.2528 C47.5806451,177.7792 39.7451613,186.4896 39.7451613,197.0048 C39.7451613,208.5536 49.0516128,217.6 60.9290323,217.6 C72.8096774,217.6 82.116129,208.5536 82.116129,197.0048 C82.116129,186.5248 74.3354838,177.8368 64.2064515,176.2688 L64.2064515,153.3568 C74.2258064,151.9872 81.9354838,144.3424 83.316129,134.4 L107.812903,134.4 C109.209677,143.424 116.4,150.5568 125.496774,151.9424 L125.496774,173.0432 C114.419355,174.5568 106.141935,183.7312 106.141935,195.2 C106.141935,207.76 116.06129,217.6 128.722581,217.6 C141.383871,217.6 151.303226,207.76 151.303226,195.2 C151.303226,183.7312 143.025806,174.5568 131.948387,173.0432 L131.948387,151.9424 C141.045161,150.5568 148.235484,143.424 149.632258,134.4 L175.503226,134.4 C176.903226,143.424 184.090323,150.5568 193.187097,151.9424 L193.187097,176.368 C183.03871,177.9168 175.229032,186.6176 175.229032,197.1136 C175.229032,208.6016 184.535484,217.6 196.412903,217.6 C208.293548,217.6 217.6,208.6016 217.6,197.1136 C217.6,186.6176 209.790323,177.9168 199.63871,176.368" fill="#FFFFFF"></path>
    </g>
</svg>

<svg preserveAspectRatio="xMidYMid" viewBox="0 0 256 256" xmlns="http://www.w3.org/2000/svg">
  <defs>
    <linearGradient id="aws-batch_svg__a" x1="0%" x2="100%" y1="100%" y2="0%">
      <stop offset="0%" stop-color="#C8511B"/>
      <stop offset="100%" stop-color="#F90"/>
    </linearGradient>
  </defs>
  <path fill="url(#aws-batch_svg__a)" d="M0 0h256v256H0z"/>
  <path fill="#FFF" d="M128.723 188.47c3.964 0 7.183 3.19 7.183 7.127 0 3.936-3.219 7.126-7.183 7.126-3.965 0-7.184-3.19-7.184-7.126 0-3.936 3.22-7.127 7.184-7.127m-60.558-57.667c0 3.936-3.22 7.127-7.184 7.127-3.965 0-7.184-3.19-7.184-7.127 0-3.933 3.22-7.126 7.184-7.126s7.184 3.193 7.184 7.126M196.413 211.2c-8.261 0-14.732-6.189-14.732-14.086 0-8.058 6.61-14.615 14.732-14.615 8.126 0 14.735 6.557 14.735 14.615 0 7.897-6.47 14.086-14.735 14.086m-14.732-80c0-8.058 6.61-14.614 14.732-14.614 8.126 0 14.735 6.556 14.735 14.614s-6.61 14.614-14.735 14.614c-8.123 0-14.732-6.556-14.732-14.614m-52.958 14.614c-8.126 0-14.733-6.556-14.733-14.614s6.607-14.614 14.733-14.614c8.125 0 14.732 6.556 14.732 14.614s-6.607 14.614-14.732 14.614m16.129 49.386c0 9.123-6.933 16-16.13 16-9.196 0-16.128-6.877-16.128-16 0-9.123 6.932-16 16.129-16 9.196 0 16.129 6.877 16.129 16m-35.484-128c0-10.048 9.222-19.2 19.355-19.2 10.132 0 19.354 9.152 19.354 19.2s-9.222 19.2-19.354 19.2c-10.133 0-19.355-9.152-19.355-19.2m-48.387 80c-9.197 0-16.13-6.877-16.13-16 0-9.26 7.236-16.794 16.13-16.794 8.893 0 16.129 7.533 16.129 16.794 0 9.123-6.933 16-16.13 16m14.685 49.805c0 7.958-6.471 14.195-14.736 14.195-8.261 0-14.732-6.237-14.732-14.195 0-8.061 6.61-14.615 14.732-14.615 8.126 0 14.736 6.554 14.736 14.615m123.974-20.637v-24.426c10.151-1.545 17.961-10.246 17.961-20.742 0-11.587-9.506-21.014-21.187-21.014-10.58 0-19.352 7.744-20.91 17.814h-25.87c-1.398-9.024-8.588-16.157-17.685-17.542V92.554C144.3 90.87 154.53 79.757 154.53 67.2c0-13.638-12.058-25.6-25.806-25.6-13.749 0-25.807 11.962-25.807 25.6 0 12.557 10.23 23.67 22.58 25.354v17.904c-9.096 1.385-16.286 8.518-17.683 17.542h-24.49c-1.53-11.274-10.952-19.994-22.342-19.994-12.449 0-22.581 10.407-22.581 23.194 0 11.469 8.277 20.643 19.355 22.157v22.896c-10.174 1.526-18.01 10.237-18.01 20.752 0 11.549 9.307 20.595 21.184 20.595 11.88 0 21.187-9.046 21.187-20.595 0-10.48-7.78-19.168-17.91-20.736v-22.912c10.02-1.37 17.73-9.015 19.11-18.957h24.497c1.397 9.024 8.587 16.157 17.684 17.542v21.101c-11.078 1.514-19.355 10.688-19.355 22.157 0 12.56 9.92 22.4 22.58 22.4 12.662 0 22.581-9.84 22.581-22.4 0-11.469-8.277-20.643-19.355-22.157v-21.1c9.097-1.386 16.287-8.519 17.684-17.543h25.871c1.4 9.024 8.587 16.157 17.684 17.542v24.426c-10.148 1.549-17.958 10.25-17.958 20.746 0 11.488 9.306 20.486 21.184 20.486 11.88 0 21.187-8.998 21.187-20.486 0-10.496-7.81-19.197-17.961-20.746"/>
</svg>
